src/data/eyes/1f914.svg

<svg xmlns="http://www.w3.org/2000/svg" viewBox="0 0 36 36"><path style="fill:#65471b" d="M15.244 11.174a2.125 2.656 0 0 1-2.125 2.656 2.125 2.656 0 0 1-2.125-2.656 2.125 2.656 0 0 1 2.125-2.656 2.125 2.656 0 0 1 2.125 2.656ZM26.5 12.236a2.125 2.656 0 0 1-2.125 2.656 2.125 2.656 0 0 1-2.125-2.656 2.125 2.656 0 0 1 2.125-2.656 2.125 2.656 0 0 1 2.125 2.656Z"/><path d="M21.431 10.101a.924.924 0 0 1-.362-.424.8.8 0 0 1 .468-1.084c4.381-1.536 7.685.48 7.823.567.415.26.555.787.312 1.178-.242.39-.776.495-1.191.238-.12-.072-2.727-1.621-6.267-.379a.924.924 0 0 1-.783-.096zM9.296 6.351a.925.925 0 0 1-.391-.399.8.8 0 0 1 .393-1.112c4.266-1.831 7.699-.043 7.843.034.433.231.608.747.391 1.154-.216.405-.74.546-1.173.318-.123-.063-2.832-1.432-6.278.047a.915.915 0 0 1-.785-.042Z" style="fill:#65471b;fill-opacity:1"/></svg>

<?xml version="1.0" encoding="UTF-8" standalone="no"?>
<svg
   xmlns:dc="http://purl.org/dc/elements/1.1/"
   xmlns:cc="http://creativecommons.org/ns#"
   xmlns:rdf="http://www.w3.org/1999/02/22-rdf-syntax-ns#"
   xmlns:svg="http://www.w3.org/2000/svg"
   xmlns="http://www.w3.org/2000/svg"
   xmlns:sodipodi="http://sodipodi.sourceforge.net/DTD/sodipodi-0.dtd"
   xmlns:inkscape="http://www.inkscape.org/namespaces/inkscape"
   viewBox="0 0 36 36"
   version="1.1"
   id="svg14"
   sodipodi:docname="1f914.svg"
   inkscape:version="1.0.1 (3bc2e813f5, 2020-09-07)">
  <metadata
     id="metadata20">
    <rdf:RDF>
      <cc:Work
         rdf:about="">
        <dc:format>image/svg+xml</dc:format>
        <dc:type
           rdf:resource="http://purl.org/dc/dcmitype/StillImage" />
        <dc:title></dc:title>
      </cc:Work>
    </rdf:RDF>
  </metadata>
  <defs
     id="defs18" />
  <sodipodi:namedview
     pagecolor="#ffffff"
     bordercolor="#666666"
     borderopacity="1"
     objecttolerance="10"
     gridtolerance="10"
     guidetolerance="10"
     inkscape:pageopacity="0"
     inkscape:pageshadow="2"
     inkscape:window-width="1920"
     inkscape:window-height="1053"
     id="namedview16"
     showgrid="false"
     inkscape:zoom="23.305556"
     inkscape:cx="16.523177"
     inkscape:cy="18"
     inkscape:window-x="0"
     inkscape:window-y="27"
     inkscape:window-maximized="1"
     inkscape:current-layer="svg14" />
  <path
     style="fill:#65471b"
     d="M 15.244,11.174 A 2.125,2.6559999 0 0 1 13.119,13.83 2.125,2.6559999 0 0 1 10.994,11.174 2.125,2.6559999 0 0 1 13.119,8.5179999 2.125,2.6559999 0 0 1 15.244,11.174 Z"
     id="ellipse6" />
  <path
     style="fill:#65471b"
     d="M 26.5,12.236 A 2.125,2.6559999 0 0 1 24.375,14.892 2.125,2.6559999 0 0 1 22.25,12.236 2.125,2.6559999 0 0 1 24.375,9.5800002 2.125,2.6559999 0 0 1 26.5,12.236 Z"
     id="ellipse8" />
  <path
     d="M 21.431,10.101 C 21.275,10.003 21.145,9.858 21.069,9.677 20.882,9.235 21.092,8.75 21.537,8.593 c 4.381,-1.536 7.685,0.48 7.823,0.567 0.415,0.26 0.555,0.787 0.312,1.178 -0.242,0.39 -0.776,0.495 -1.191,0.238 -0.12,-0.072 -2.727,-1.621 -6.267,-0.379 -0.266,0.091 -0.553,0.046 -0.783,-0.096 z"
     id="path873"
     style="fill:#65471b;fill-opacity:1" />
  <path
     d="M 9.296,6.351 C 9.132,6.263 8.993,6.127 8.905,5.952 8.689,5.524 8.865,5.025 9.298,4.84 c 4.266,-1.831 7.699,-0.043 7.843,0.034 0.433,0.231 0.608,0.747 0.391,1.154 -0.216,0.405 -0.74,0.546 -1.173,0.318 C 16.236,6.283 13.527,4.914 10.081,6.393 9.824,6.502 9.534,6.478 9.296,6.351 Z"
     id="path12"
     style="fill:#65471b;fill-opacity:1" />
</svg>
